assets/svg/action_wallet_verifywithpass.svg

<svg width="80" height="80" viewBox="0 0 80 80" fill="none" xmlns="http://www.w3.org/2000/svg">
<path d="M58.9953 49.0953C58.6937 49.0953 58.4484 49.3406 58.4484 49.6422V70.0953C58.4484 73.8766 55.3719 76.9531 51.5906 76.9531H28.4047C24.6234 76.9531 21.5469 73.8766 21.5469 70.0953V18.3359C21.5469 18.0344 21.3016 17.7891 21 17.7891C20.6984 17.7891 20.4531 18.0344 20.4531 18.3359V70.0953C20.4531 74.4797 24.0203 78.0469 28.4047 78.0469H51.5922C55.9766 78.0469 59.5437 74.4797 59.5437 70.0953V49.6422C59.5433 49.497 59.4853 49.358 59.3825 49.2555C59.2797 49.153 59.1405 49.0954 58.9953 49.0953ZM51.5922 1.95312H28.4047C24.0203 1.95312 20.4531 5.52031 20.4531 9.90469V14.6234C20.4531 14.925 20.6984 15.1703 21 15.1703C21.3016 15.1703 21.5469 14.925 21.5469 14.6234V9.90469C21.5469 6.12344 24.6234 3.04688 28.4047 3.04688H51.5922C55.3734 3.04688 58.45 6.12344 58.45 9.90469V23.2609C58.45 23.5625 58.6953 23.8078 58.9969 23.8078C59.2984 23.8078 59.5437 23.5625 59.5437 23.2609V9.90469C59.5422 5.52031 55.975 1.95312 51.5922 1.95312Z" fill="#9A9A9A"/>
<path d="M44.3469 8.7082C45.4719 8.7082 46.3875 7.79258 46.3875 6.66758C46.3875 5.54258 45.4719 4.62695 44.3469 4.62695H35.6562C34.5312 4.62695 33.6156 5.54258 33.6156 6.66758C33.6156 7.79258 34.5312 8.7082 35.6562 8.7082H44.3469ZM45.2937 6.66758C45.2937 7.18945 44.8688 7.61445 44.3469 7.61445H42.1391C42.7594 7.17383 43.2 6.50039 43.3375 5.72227H44.3469C44.8688 5.7207 45.2937 6.1457 45.2937 6.66758ZM30.5469 73.7723C30.5469 74.0738 30.7922 74.3191 31.0938 74.3191H48.9109C49.2125 74.3191 49.4578 74.0738 49.4578 73.7723C49.4578 73.4707 49.2125 73.2254 48.9109 73.2254H31.0938C30.7906 73.2254 30.5469 73.4707 30.5469 73.7723Z" fill="#9A9A9A"/>
<path fill-rule="evenodd" clip-rule="evenodd" d="M26.7074 12H53.2936C53.96 12 54.5 12.7775 54.5 13.7352V21.2648C54.5 22.2225 53.959 23 53.2926 23H26.7074C26.041 23 25.5 22.2225 25.5 21.2648V13.7352C25.5 12.7775 26.041 12 26.7074 12ZM29.5 15C29.2239 15 29 15.2239 29 15.5C29 15.7761 29.2239 16 29.5 16H48.5C48.7761 16 49 15.7761 49 15.5C49 15.2239 48.7761 15 48.5 15H29.5ZM29.5 19C29.2239 19 29 19.2239 29 19.5C29 19.7761 29.2239 20 29.5 20H44.5C44.7761 20 45 19.7761 45 19.5C45 19.2239 44.7761 19 44.5 19H29.5Z" fill="#E1EAF8"/>
<rect x="24.5" y="52" width="8" height="2" rx="1" fill="#E1EAF8"/>
<rect x="35.5" y="52" width="8" height="2" rx="1" fill="#E1EAF8"/>
<rect x="46.5" y="52" width="8" height="2" rx="1" fill="#E1EAF8"/>
<rect x="24.5" y="56" width="8" height="2" rx="1" fill="#E1EAF8"/>
<rect x="35.5" y="56" width="8" height="2" rx="1" fill="#E1EAF8"/>
<rect x="46.5" y="56" width="8" height="2" rx="1" fill="#E1EAF8"/>
<rect x="24.5" y="60" width="8" height="2" rx="1" fill="#E1EAF8"/>
<rect x="35.5" y="60" width="8" height="2" rx="1" fill="#E1EAF8"/>
<rect x="46.5" y="60" width="8" height="2" rx="1" fill="#E1EAF8"/>
<path d="M73.3563 31H29.9703C28.8828 31 28 31.8828 28 32.9703V41.5203C28 42.6078 28.8828 43.4906 29.9703 43.4906H73.3547C74.4422 43.4906 75.325 42.6078 75.325 41.5203V32.9703C75.325 31.8828 74.4438 31 73.3563 31ZM41.0297 37.2469L39.8359 37.4953C39.6187 37.5375 39.3094 37.5672 38.9094 37.5859C38.8375 37.5891 38.8094 37.6781 38.8641 37.7234C39.1281 37.9391 39.3422 38.1375 39.5094 38.3187L40.3141 39.1922C40.3875 39.2734 40.3766 39.4 40.2891 39.4656L38.9922 40.4375C38.9016 40.5047 38.7734 40.4766 38.7188 40.3781L38.15 39.3422C38.0641 39.1875 37.9313 38.9016 37.75 38.4844C37.7234 38.4219 37.6344 38.4219 37.6078 38.4844C37.4109 38.9422 37.2781 39.2281 37.2078 39.3422L36.6297 40.3828C36.575 40.4797 36.4484 40.5078 36.3594 40.4422L35.0266 39.4688C34.9344 39.4016 34.925 39.2688 35.0047 39.1891L35.8688 38.3172C36.0984 38.0875 36.325 37.8844 36.5469 37.7109C36.6016 37.6672 36.5797 37.5813 36.5109 37.5734C36.2641 37.5438 35.9625 37.4969 35.6063 37.4297L34.4188 37.2375C34.3063 37.2188 34.2359 37.1031 34.2734 36.9953L34.7891 35.4844C34.825 35.3813 34.9406 35.3313 35.0406 35.375L36.1141 35.8625C36.2328 35.9172 36.5109 36.0734 36.9469 36.3312C37.0047 36.3656 37.0766 36.3141 37.0625 36.2484C36.9703 35.8281 36.9109 35.5094 36.8844 35.2906L36.7313 34.1313C36.7172 34.0203 36.8031 33.9219 36.9141 33.9219H38.4969C38.6078 33.9219 38.6938 34.0187 38.6812 34.1281L38.5422 35.2891C38.5109 35.5766 38.45 35.9 38.3594 36.2547C38.3422 36.3188 38.4109 36.3734 38.4703 36.3438C38.6141 36.2703 38.7141 36.2172 38.7687 36.1859C39.0219 36.0469 39.2156 35.9469 39.3484 35.8875L40.4187 35.3797C40.5187 35.3312 40.6391 35.3828 40.6734 35.4891L41.1687 37.0047C41.2031 37.1125 41.1391 37.225 41.0297 37.2469ZM50.2531 37.2469L49.0594 37.4953C48.8422 37.5375 48.5328 37.5672 48.1328 37.5859C48.0609 37.5891 48.0328 37.6781 48.0875 37.7234C48.3516 37.9391 48.5656 38.1375 48.7328 38.3187L49.5375 39.1922C49.6109 39.2734 49.6 39.4 49.5125 39.4656L48.2156 40.4375C48.125 40.5047 47.9969 40.4766 47.9422 40.3781L47.3734 39.3422C47.2875 39.1875 47.1547 38.9016 46.9734 38.4844C46.9469 38.4219 46.8578 38.4219 46.8313 38.4844C46.6344 38.9422 46.5016 39.2281 46.4313 39.3422L45.8531 40.3828C45.7984 40.4797 45.6719 40.5078 45.5828 40.4422L44.25 39.4688C44.1578 39.4016 44.1484 39.2688 44.2281 39.1891L45.0922 38.3172C45.3219 38.0875 45.5484 37.8844 45.7703 37.7109C45.825 37.6672 45.8031 37.5813 45.7344 37.5734C45.4875 37.5438 45.1859 37.4969 44.8297 37.4297L43.6422 37.2375C43.5297 37.2188 43.4594 37.1031 43.4969 36.9953L44.0125 35.4844C44.0484 35.3813 44.1641 35.3313 44.2641 35.375L45.3375 35.8625C45.4563 35.9172 45.7344 36.0734 46.1703 36.3312C46.2281 36.3656 46.3 36.3141 46.2859 36.2484C46.1938 35.8281 46.1344 35.5094 46.1078 35.2906L45.9547 34.1313C45.9406 34.0203 46.0266 33.9219 46.1375 33.9219H47.7203C47.8313 33.9219 47.9172 34.0187 47.9047 34.1281L47.7656 35.2891C47.7344 35.5766 47.6734 35.9 47.5828 36.2547C47.5656 36.3188 47.6344 36.3734 47.6937 36.3438C47.8375 36.2703 47.9375 36.2172 47.9922 36.1859C48.2453 36.0469 48.4391 35.9469 48.5719 35.8875L49.6422 35.3797C49.7422 35.3312 49.8625 35.3828 49.8969 35.4891L50.3922 37.0047C50.4266 37.1125 50.3609 37.225 50.2531 37.2469ZM59.4766 37.2469L58.2828 37.4953C58.0656 37.5375 57.7562 37.5672 57.3562 37.5859C57.2844 37.5891 57.2563 37.6781 57.3109 37.7234C57.575 37.9391 57.7891 38.1375 57.9563 38.3187L58.7609 39.1922C58.8344 39.2734 58.8234 39.4 58.7359 39.4656L57.4391 40.4375C57.3484 40.5047 57.2203 40.4766 57.1656 40.3781L56.5969 39.3422C56.5109 39.1875 56.3781 38.9016 56.1969 38.4844C56.1703 38.4219 56.0813 38.4219 56.0547 38.4844C55.8578 38.9422 55.725 39.2281 55.6547 39.3422L55.0766 40.3828C55.0219 40.4797 54.8953 40.5078 54.8063 40.4422L53.4734 39.4688C53.3813 39.4016 53.3719 39.2688 53.4516 39.1891L54.3156 38.3172C54.5453 38.0875 54.7719 37.8844 54.9937 37.7109C55.0484 37.6672 55.0266 37.5813 54.9578 37.5734C54.7109 37.5438 54.4094 37.4969 54.0531 37.4297L52.8656 37.2375C52.7531 37.2188 52.6828 37.1031 52.7203 36.9953L53.2359 35.4844C53.2719 35.3813 53.3875 35.3313 53.4875 35.375L54.5609 35.8625C54.6797 35.9172 54.9578 36.0734 55.3937 36.3312C55.4516 36.3656 55.5234 36.3141 55.5094 36.2484C55.4172 35.8281 55.3578 35.5094 55.3312 35.2906L55.1781 34.1313C55.1641 34.0203 55.25 33.9219 55.3609 33.9219H56.9438C57.0547 33.9219 57.1406 34.0187 57.1281 34.1281L56.9891 35.2891C56.9578 35.5766 56.8969 35.9 56.8062 36.2547C56.7891 36.3188 56.8578 36.3734 56.9172 36.3438C57.0609 36.2703 57.1609 36.2172 57.2156 36.1859C57.4688 36.0469 57.6625 35.9469 57.7953 35.8875L58.8656 35.3797C58.9656 35.3312 59.0859 35.3828 59.1203 35.4891L59.6156 37.0047C59.6484 37.1125 59.5844 37.225 59.4766 37.2469ZM68.7 37.2469L67.5063 37.4953C67.2891 37.5375 66.9797 37.5672 66.5797 37.5859C66.5078 37.5891 66.4797 37.6781 66.5344 37.7234C66.7984 37.9391 67.0125 38.1375 67.1797 38.3187L67.9844 39.1922C68.0578 39.2734 68.0469 39.4 67.9594 39.4656L66.6625 40.4375C66.5719 40.5047 66.4438 40.4766 66.3891 40.3781L65.8203 39.3422C65.7344 39.1875 65.6016 38.9016 65.4203 38.4844C65.3937 38.4219 65.3047 38.4219 65.2781 38.4844C65.0812 38.9422 64.9484 39.2281 64.8781 39.3422L64.3 40.3828C64.2453 40.4797 64.1188 40.5078 64.0297 40.4422L62.6969 39.4688C62.6047 39.4016 62.5953 39.2688 62.675 39.1891L63.5391 38.3172C63.7687 38.0875 63.9953 37.8844 64.2172 37.7109C64.2719 37.6672 64.25 37.5813 64.1813 37.5734C63.9344 37.5438 63.6328 37.4969 63.2766 37.4297L62.0891 37.2375C61.9766 37.2188 61.9062 37.1031 61.9438 36.9953L62.4594 35.4844C62.4953 35.3813 62.6109 35.3313 62.7109 35.375L63.7844 35.8625C63.9031 35.9172 64.1812 36.0734 64.6172 36.3312C64.675 36.3656 64.7484 36.3141 64.7328 36.2484C64.6406 35.8281 64.5812 35.5094 64.5547 35.2906L64.4016 34.1313C64.3875 34.0203 64.4734 33.9219 64.5844 33.9219H66.1672C66.2781 33.9219 66.3641 34.0187 66.3516 34.1281L66.2125 35.2891C66.1813 35.5766 66.1203 35.9 66.0297 36.2547C66.0125 36.3188 66.0812 36.3734 66.1406 36.3438C66.2844 36.2703 66.3844 36.2172 66.4391 36.1859C66.6922 36.0469 66.8859 35.9469 67.0188 35.8875L68.0891 35.3797C68.1906 35.3312 68.3094 35.3828 68.3438 35.4891L68.8391 37.0047C68.8719 37.1125 68.8078 37.225 68.7 37.2469Z" fill="#0166FF"/>
</svg>

<svg xmlns="http://www.w3.org/2000/svg" width="80" height="80" fill="none"><path fill="#9A9A9A" d="M58.995 49.095a.547.547 0 0 0-.547.547v20.453a6.866 6.866 0 0 1-6.857 6.858H28.405a6.866 6.866 0 0 1-6.858-6.858v-51.76a.547.547 0 0 0-1.094 0v51.76c0 4.385 3.567 7.952 7.952 7.952h23.187c4.385 0 7.952-3.567 7.952-7.952V49.642a.55.55 0 0 0-.549-.547M51.592 1.953H28.405c-4.385 0-7.952 3.567-7.952 7.952v4.718a.547.547 0 0 0 1.094 0V9.905a6.866 6.866 0 0 1 6.858-6.858h23.187a6.866 6.866 0 0 1 6.858 6.858V23.26a.547.547 0 0 0 1.094 0V9.905c-.002-4.385-3.569-7.952-7.952-7.952"/><path fill="#9A9A9A" d="M44.347 8.708c1.125 0 2.04-.915 2.04-2.04s-.915-2.041-2.04-2.041h-8.69c-1.126 0-2.041.916-2.041 2.04 0 1.126.915 2.041 2.04 2.041zm.947-2.04a.95.95 0 0 1-.947.946h-2.208a2.95 2.95 0 0 0 1.198-1.892h1.01a.946.946 0 0 1 .947.946M30.547 73.772c0 .302.245.547.547.547H48.91a.547.547 0 0 0 0-1.094H31.094a.546.546 0 0 0-.547.547"/><path fill="#E1EAF8" fill-rule="evenodd" d="M26.707 12h26.587c.666 0 1.206.777 1.206 1.735v7.53c0 .957-.541 1.735-1.207 1.735H26.707c-.666 0-1.207-.777-1.207-1.735v-7.53c0-.957.541-1.735 1.207-1.735m2.793 3a.5.5 0 0 0 0 1h19a.5.5 0 0 0 0-1zm0 4a.5.5 0 0 0 0 1h15a.5.5 0 0 0 0-1z" clip-rule="evenodd"/><rect width="8" height="2" x="24.5" y="52" fill="#E1EAF8" rx="1"/><rect width="8" height="2" x="35.5" y="52" fill="#E1EAF8" rx="1"/><rect width="8" height="2" x="46.5" y="52" fill="#E1EAF8" rx="1"/><rect width="8" height="2" x="24.5" y="56" fill="#E1EAF8" rx="1"/><rect width="8" height="2" x="35.5" y="56" fill="#E1EAF8" rx="1"/><rect width="8" height="2" x="46.5" y="56" fill="#E1EAF8" rx="1"/><rect width="8" height="2" x="24.5" y="60" fill="#E1EAF8" rx="1"/><rect width="8" height="2" x="35.5" y="60" fill="#E1EAF8" rx="1"/><rect width="8" height="2" x="46.5" y="60" fill="#E1EAF8" rx="1"/><path fill="#0166FF" d="M73.356 31H29.97c-1.087 0-1.97.883-1.97 1.97v8.55c0 1.088.883 1.97 1.97 1.97h43.385c1.087 0 1.97-.882 1.97-1.97v-8.55A1.97 1.97 0 0 0 73.356 31M41.03 37.247l-1.194.248a7 7 0 0 1-.927.09.077.077 0 0 0-.045.138q.395.324.645.596l.805.873a.186.186 0 0 1-.025.274l-1.297.971a.186.186 0 0 1-.273-.059l-.569-1.036q-.129-.231-.4-.858a.077.077 0 0 0-.142 0q-.295.687-.4.858l-.578 1.04a.185.185 0 0 1-.27.06l-1.333-.973a.185.185 0 0 1-.022-.28l.864-.872a8 8 0 0 1 .678-.606c.055-.044.033-.13-.036-.138q-.37-.044-.905-.143l-1.187-.193a.185.185 0 0 1-.146-.242l.516-1.51a.187.187 0 0 1 .252-.11l1.073.487q.179.082.833.47a.078.078 0 0 0 .115-.084q-.138-.63-.178-.957l-.153-1.16a.185.185 0 0 1 .183-.21h1.583c.11 0 .197.098.184.207l-.139 1.161q-.047.433-.183.966c-.017.064.052.118.111.089q.216-.111.299-.158a9 9 0 0 1 .58-.298l1.07-.508c.1-.049.22.003.254.11l.496 1.515a.187.187 0 0 1-.14.242m9.223 0-1.194.248a7 7 0 0 1-.926.09.077.077 0 0 0-.046.138q.397.324.646.596l.805.873a.186.186 0 0 1-.025.274l-1.297.971a.186.186 0 0 1-.274-.059l-.569-1.036q-.127-.231-.4-.858a.077.077 0 0 0-.142 0q-.295.687-.4.858l-.578 1.04a.185.185 0 0 1-.27.06l-1.333-.973a.185.185 0 0 1-.022-.28l.864-.872q.345-.346.678-.606c.055-.044.033-.13-.036-.138q-.37-.044-.904-.143l-1.188-.193a.185.185 0 0 1-.145-.242l.516-1.51a.187.187 0 0 1 .251-.11l1.073.487q.18.082.833.47a.078.078 0 0 0 .116-.084q-.138-.63-.178-.957l-.153-1.16a.185.185 0 0 1 .183-.21h1.582c.111 0 .197.098.185.207l-.14 1.161q-.046.433-.182.966c-.017.064.051.118.11.089q.218-.111.3-.158.379-.21.579-.298l1.07-.508c.1-.049.22.003.255.11l.495 1.515a.19.19 0 0 1-.139.242m9.224 0-1.194.248a7 7 0 0 1-.927.09c-.072.004-.1.093-.045.138q.395.324.645.596l.805.873a.186.186 0 0 1-.025.274l-1.297.971a.186.186 0 0 1-.273-.059l-.57-1.036q-.127-.231-.4-.858a.077.077 0 0 0-.141 0q-.295.687-.4.858l-.578 1.04a.185.185 0 0 1-.27.06l-1.334-.973a.185.185 0 0 1-.021-.28l.864-.872q.345-.346.678-.606c.054-.044.033-.13-.036-.138q-.37-.044-.905-.143l-1.187-.193a.185.185 0 0 1-.146-.242l.516-1.51a.187.187 0 0 1 .252-.11l1.073.487q.179.082.833.47a.078.078 0 0 0 .115-.084q-.138-.63-.178-.957l-.153-1.16a.185.185 0 0 1 .183-.21h1.583c.11 0 .197.098.184.207l-.139 1.161q-.047.433-.183.966c-.017.064.052.118.111.089q.216-.111.299-.158a9 9 0 0 1 .58-.298l1.07-.508c.1-.049.22.003.254.11l.496 1.515a.19.19 0 0 1-.14.242m9.223 0-1.194.248a7 7 0 0 1-.926.09.077.077 0 0 0-.046.138q.395.324.646.596l.804.873a.186.186 0 0 1-.025.274l-1.297.971a.186.186 0 0 1-.273-.059l-.569-1.036q-.128-.231-.4-.858a.077.077 0 0 0-.142 0q-.295.687-.4.858l-.578 1.04a.185.185 0 0 1-.27.06l-1.333-.973a.185.185 0 0 1-.022-.28l.864-.872a8 8 0 0 1 .678-.606c.055-.044.033-.13-.036-.138q-.37-.044-.904-.143l-1.188-.193a.185.185 0 0 1-.145-.242l.515-1.51a.187.187 0 0 1 .252-.11l1.073.487q.18.082.833.47c.058.034.131-.018.116-.084q-.139-.63-.178-.957l-.153-1.16a.185.185 0 0 1 .182-.21h1.583c.111 0 .197.098.185.207l-.14 1.161q-.046.433-.182.966c-.017.064.051.118.11.089q.216-.111.3-.158.379-.21.579-.298l1.07-.508a.183.183 0 0 1 .255.11l.495 1.515a.19.19 0 0 1-.139.242"/></svg>
